!!!ONB: MCCC : ICA0021_02 : Extracted Monophonic Melody
!!!COM: Alkan, Charles-Valentin
!!!OPR: Gigue et air de ballet, dans les style ancien
!!!OMV: 2
!!!SCT: Op.24
!!!ODT: 1844///
**kern
*staff1
*IPiano
=1
*clefF4
*k[b-]
*d:
*M2/2
2d
4a
4f
=2
4.d
8e
8f
8g
8a
8b
=3
4cc
4cc
4g
4a
=4
4b-
8a
8g
4f
4g
=5
2a
2a
=6
2d
4a
4f
=7
4.d
8e
8f
8g
8a
8b
=8
4cc
4cc
4g
4a
=9
4b-
8a
8g
4f
4g
=10
2a
2a
=11
2a
4dd
4dd
=12
4cc
8b
8a
4dd
4dd
=13
4cc
8b
8a
4cc
4dd
=14
2g
2a
=15
2d
4a
4f
=16
4.d
8e
8f
8g
8a
8b
=17
4cc
4cc
4g
4a
=18
4b-
8a
8g
4f
4g
=19
2a
2d
=20
2a
4dd
4dd
=21
4cc
8b
8a
4dd
4dd
=22
4cc
8b
8a
4cc
4dd
=23
2g
2a
=24
2d
4a
4f
=25
4.d
8e
8f
8g
8a
8b
=26
4cc
4cc
4g
4a
=27
4b-
8a
8g
4f
4g
=28
2a
2d
=29
*k[f#c#]
*D:
4aa
4ff#
4bb
4aa
=30
4gg
4ff#
4ee
4ff#
=31
4gg
4aa
4bb
4ccc#
=32
4ddd
4eee
4fff#
4ddd
=33
4eee
4aa
4bb
4aa
=34
4eee
4fff#
4eee
4ddd
=35
4eee
4aa
4bb
4aa
=36
4eee
4fff#
4eee
4ddd
=37
4aa
4ff#
4bb
4aa
=38
4gg
4ff#
4ee
4ff#
=39
4gg
4aa
4bb
4ccc#
=40
4ddd
4eee
4fff#
4ddd
=41
4ccc#
4ff#
4gg
4ff#
=42
4ccc#
4ddd
4ccc#
4bb
=43
4ccc#
4ff#
4gg
4ff#
=44
4ccc#
4ddd
4ccc#
4bb
=45
4eee
4aa
4bb
4aa
=46
4eee
4fff#
4eee
4ddd
=47
4eee
4aa
4bb
4aa
=48
4eee
4fff#
4eee
4ddd
=49
4eee
4fff#
4eee
4ddd
=50
4eee
4fff#
4eee
4ddd
=51
4aaa
4aaa
4aaa
4aaa
=52
4aaa
4bbb
4aaa
4aaa
=53
4aaa
4aaa
4aaa
4aaa
=54
4aaa
4aaa
4aaa
4aaa
=55
4aaa
4aaa
4aaa
4aaa
=56
4aaa
4aaa
4aaa
4aaa
=57
4aaa
4aaa
4aaa
4aaa
=58
4aaa
4aaa
4aaa
4aaa
=59
12aa
12ff#
12dd
12ff#
12dd
12ff#
12bb
12gg
12dd
12aa
12ff#
12dd
=60
12gg
12ee
12dd
12ff#
12dd
12a
12ee
12cc#
12a
12ff#
12dd
12a
=61
12gg
12ee
12a
12aa
12ff#
12dd
12bb
12gg
12dd
12ccc#
12ee
12dd
=62
12ddd
12ff#
12dd
12eee
12gg
12ee
12fff#
12aa
12ff#
12ddd
12ff#
12dd
=63
12eee
12aa
12ee
12aa
12ee
12a
12cc#
12b
12bb
12cc#
12a
12aa
=64
12eee
12aa
12ee
12fff#
12aa
12ff#
12eee
12aa
12ee
12ddd
12aa
12dd
=65
12eee
12aa
12ee
12aa
12ee
12a
12cc#
12b
12bb
12cc#
12a
12aa
=66
12eee
12aa
12ee
12fff#
12aa
12ff#
12eee
12aa
12ee
12ddd
12aa
12dd
=67
*k[b-]
*d:
2d
4a
4f
=68
4.d
8e
8f
8g
8a
8b
=69
4cc
4cc
4g
4a
=70
4b-
8a
8g
4f
4g
=71
2a
2a
=72
2d
4a
4f
=73
4.d
8e
8f
8g
8a
8b
=74
4cc
4cc
4g
4a
=75
4b-
8a
8g
4f
4g
=76
2a
2a
=77
2a
4dd
4dd
=78
4cc
8b
8a
4dd
4dd
=79
4cc
8b
8a
4cc
4dd
=80
2g
2a
=81
2d
4a
4f
=82
4.d
8e
8f
8g
8a
8b
=83
4cc
4cc
4g
4a
=84
4b-
8a
8g
4f
4g
=85
2a
2d
=86
2a
4dd
4dd
=87
4cc
8b
8a
4dd
4dd
=88
4cc
8b
8a
4cc
4dd
=89
2g
2a
=90
2d
4a
4f
=91
4.d
8e
8f
8g
8a
8b
=92
4cc
4cc
4g
4a
=93
4b-
8a
8g
4f
4g
=94
2a
2d
=95
1r
=96
*k[f#c#g#]
*A:
8ccc#
8bb
8ccc#
8aa
2eee[
=97
8eee]
8bb
8gg#
8bb
2ee
=98
8ddd
8ccc#
8ddd
8bb
2fff#[
=99
8fff#]
8ccc#
8aa
8ccc#
2ff#
=100
8fff#
8eee
8fff#
8ddd
2aaa[
=101
8aaa]
8eee
8cccc#
8bbb
8aaa
8ggg#
8fff#
8eee
=102
8eee
8ddd
8ddd
8ccc#
8ccc#
8bb
8bb
8aa
=103
8gg#
8ee
8dd#
8ee
8ff#
8gg#
8aa
8bb
=104
8ccc#
8bb
8ccc#
8aa
2eee[
=105
8eee]
8bb
8gg#
8bb
2ee
=106
8ddd
8ccc#
8ddd
8bb
2fff#[
=107
8fff#]
8ccc#
8aa
8ccc#
2ff#
=108
8fff#
8eee
8fff#
8ddd
2aaa[
=109
8aaa]
8eee
8cccc#
8bbb
8aaa
8ggg#
8fff#
8eee
=110
8eee
8ddd
8fff#
8ddd
8ddd
8ccc#
8eee
8ccc#
=111
8ccc#
8bb
8ddd
8bb
8bb
8aa
8ccc#
8aa
=112
8ccc#
8bb
8ddd
8ccc#
8ccc#
8bb
8bb
8aa
=113
8aa
8gg#
8gg#
8aa
8aa
8bb
8bb
8ccc#
=114
8ccc#
8ddd
8ddd
8eee
8eee
8fff#
8fff#
8ggg#
=115
8ggg#
8aaa
8aaa
8ggg#
8ggg#
8fff#
8fff#
8eee
=116
8eee
8ddd
8ddd
8ccc#
8ccc#
8bb
8bb
8aa
=117
8aa
8gg#
8gg#
8aa
8aa
8bb
8bb
8ccc#
=118
8ccc#
8ddd
8ddd
8eee
8eee
8fff#
8fff#
8ggg#
=119
8ggg#
8aaa
8aaa
8ggg#
8ggg#
8fff#
8fff#
8eee
=120
8eee
8ddd
8ddd
8ccc#
8ccc#
8bb
8bb
8aa
=121
8gg#
8ee
8bb
8gg#
8aa
8ee
8ccc#
8aa
=122
8bb
8ee
8dd#
8ee
8ff#
8gg#
8aa
8bb
=123
8ccc#
8bb
8ccc#
8aa
2eee[
=124
8eee]
8bb
8gg#
8bb
2ee
=125
8ddd
8ccc#
8ddd
8bb
2fff#[
=126
8fff#]
8ccc#
8aa
8ccc#
2ff#
=127
8fff#
8eee
8fff#
8ddd
2aaa[
=128
8aaa]
8eee
8cccc#
8bbb
8aaa
8ggg#
8fff#
8eee
=129
8eee
8ddd
8fff#
8ddd
8ddd
8ccc#
8eee
8ccc#
=130
8ccc#
8bb
8ddd
8bb
8bb
8aa
8ccc#
8aa
=131
8ccc#
8bb
8ddd
8ccc#
8ccc#
8bb
8bb
8aa
=132
8aa
8gg#
8gg#
8aa
8aa
8bb
8bb
8ccc#
=133
8ccc#
8ddd
8ddd
8eee
8eee
8fff#
8fff#
8ggg#
=134
8ggg#
8aaa
8aaa
8ggg#
8ggg#
8fff#
8fff#
8eee
=135
8eee
8ddd
8ddd
8ccc#
8ccc#
8bb
8bb
8aa
=136
8aa
8gg#
8gg#
8aa
8aa
8bb
8bb
8ccc#
=137
8ccc#
8ddd
8ddd
8eee
8eee
8fff#
8fff#
8ggg#
=138
8ggg#
8aaa
8aaa
8ggg
8ggg
8fff
8fff
8eee
=139
8eee
8ddd
8ddd
8ccc
8ccc
8bb
8bb
8aa
=140
8gg#
8ee
8bb
8gg#
8aa
8ee
8ccc
8aa
=141
8bb
8ee
8ddd
8bb
8aa
8ee
8ccc
8aa
=142
8gg#
8ee
8bb
8gg#
8aa
8ee
8ccc
8aa
=143
8bb
8ee
8dd#
8ee
8ff#
8gg#
8aa
8bb
=144
8ccc#
8bb
8ccc#
8aa
2eee[
=145
8eee]
8bb
8gg#
8bb
2ee
=146
8ddd
8ccc#
8ddd
8bb
2fff#[
=147
8fff#]
8ccc#
8aa
8ccc#
2ff#
=148
8fff#
8eee
8fff#
8ddd
2aaa[
=149
8aaa]
8eee
8cccc#
8bbb
8aaa
8ggg#
8fff#
8eee
=150
8eee
8ddd
8bbb
8ddd
8ddd
8ccc#
8aaa
8ccc#
=151
8ccc#
8bb
8ggg#
8bb
8bb
8aa
8fff#
8aa
=152
8ccc#
8bb
8ddd
8gg#
4aa
4r
=153
1r
=154
*k[b-]
*d:
2d
4a
4f
=155
4d
4r
2r
=156
2d
4a
4f
=157
4d
4r
2r
=158
2d
4a
4f
=159
4.d
8e
8f
8g
8a
8b
=160
4cc
4cc
4g
4a
=161
4b-
8a
8g
4f
4g
=162
2a
2a
=163
2d
4a
4f
=164
4.d
8e
8f
8g
8a
8b
=165
4cc
4cc
4g
4a
=166
4b-
8a
8g
4f
4g
=167
2a
2a
=168
2a
4dd
4dd
=169
4cc
8b
8a
4dd
4dd
=170
4cc
8b
8a
4cc
4dd
=171
2g
2a
=172
2d
4a
4f
=173
4.d
8e
8f
8g
8a
8b
=174
4cc
4cc
4g
4a
=175
4b-
8a
8g
4f
4g
=176
4a
4a
4e
4f
=177
4g
8f
8e
4d
4e
=178
4f
4f
4c
4d
=179
4e
8d
8c
4B
4c#
=180
4d
4e
4f
4g
=181
4a
4cc#
4dd
4ee
=182
4ff
4ff#
4gg
4aa
=183
4bb-
4eee
4ddd
4ccc#
=184
4dd
4ee
4ff
4gg
=185
4aa
4ccc#
4ddd
4eee
=186
4fff
4fff#
4ggg
4aaa
=187
4bbb-
4eeee
4dddd
4cccc#
=188
2ddd
4aaa
4fff
=189
4ddd
4r
2r
=190
2ddd
4aaa
4fff
=191
4ddd
4r
2r
=192
4.ddd
8eee
8fff
8ggg
8aaa
8bbb
=193
8cccc
8bbb
8cccc
8aaa
8fff
8ddd
8ggg
8eee
=194
8aaa
8ggg
8aaa
8fff
8ddd
8bb-
8eee
8ccc
=195
8fff
8eee
8fff
8ddd
8bb-
8gg
8ccc
8aa
=196
8ff
8dd
8gg
8ee
8aa
8ff
8bb-
8gg
=197
8ccc
8aa
8ddd
8bb-
8eee
8ccc
8fff
8ddd
=198
8ggg
8fff
8eee
8fff
8ggg
8aaa
8bbb-
8cccc
=199
8dddd
8eeee
8ffff
8cccc
8dddd
8aaa
8bbb-
8fff
=200
8ggg
8eee
8fff
8ggg
8aaa
8ggg
8aaa
8aa
=201
4ddd
4eee
4fff
4aaa
=202
4fff
4aaa
4dddd
4eeee
=203
4ffff
4r
2r
=204
2d
4a
4f
=205
4d
4r
2r
=206
4ffff
4r
2r
=207
4d
4r
2r
==
*-
